X:1
T:Coaxing the Piano
T:Coaxing the Piano
T:Zez Confrey
T:Copyrgiht 1922 by Jack Mills Inc
T:Copyrgiht 1922 by Jack Mills Inc
T:Copyrgiht 1922 by Jack Mills Inc
T:Copyrgiht 1922 by Jack Mills Inc
T:Copyrgiht 1922 by Jack Mills Inc
C:Zez Confrey
Z:Copyrgiht 1922 by Jack Mills Inc
%%score { ( 1 3 ) | ( 2 4 ) }
L:1/8
Q:1/4=200
M:4/4
K:Db
V:1 treble nm="Piano" snm="Pno."
V:3 treble 
V:2 bass 
V:4 bass 
V:1
"^Allegro"!p!!f!"_-"[I:staff +1] (3F,"_i"[I:staff -1].A,"^R.H.""^simile".[DA][I:staff +1] ^F,[I:staff -1].=A, [=D=A][I:staff +1]=G,[I:staff -1] .B,.[Ec] | %1
[I:staff +1] (3G,[I:staff -1]._C.[_F_c][I:staff +1] =G,[I:staff -1].=A, .[=D=A][I:staff +1]_G,[I:staff -1] .=A,.[=D=A] | %2
[I:staff +1] (3=G,[I:staff -1].B,.[EB][I:staff +1] G,[I:staff -1]._C .[_F_c][I:staff +1]=A,[I:staff -1] .=C.[=F=c] | %3
[I:staff +1] (3A,[I:staff -1].D.[Gd][I:staff +1] =A,[I:staff -1].C .[Fc][I:staff +1]_A,[I:staff -1] ._C.[_F_c] | %4
[I:staff +1] (3=A,[I:staff -1].=C.[=F=c][I:staff +1] B,[I:staff -1].D .[Gd][I:staff +1]=B,[I:staff -1] .=D.[=G=d] | %5
[I:staff +1] (3C[I:staff -1].E.[Ae][I:staff +1] =B,[I:staff -1].=D .[=G=d][I:staff +1]_B,[I:staff -1] ._D.[_G_d] | %6
 .[CGc]2 !>![DGd]2- [DGd]__B .[DGd]2 | .[CGc]2 z2 !>![Gca]2 z2 |:!p! (3f.d.e !>!f.d .e!>!f d.e | %9
 (3f.d.e !>!f.d .e!>!f d.e | (3f.d.e !>!f.d .e!>!f d.e | !>![Bcg]4- [Bcg]2 [Ag]2 | %12
 (3f.=d.e !>!f.d .e!>!f d.e | (3f.=d.e !>!f.d .e!>!f d.e | (3f.=d.e !>!f.d .e!>!f d.e | %15
 [Bdf]4- [Bdf]2 [Ac=e]2 | (3f.d.e !>!f.d .e!>!f d.e | (3f.d.e !>!f.d .e!>!f d.e | %18
 (3f.d.e !>!f.d .e!>!f d.e | [=Acf]4- [Acf]2 [Acf]2 | g2 f =A2 B fe | =G2 A e2 d =F_G | %22
 .[__Ed]2 !>![DGd]4 .[CGc]2 |1 .[DFd]2 z2 [Gca]2 z2 :|2 [DFd]2 z .[Aa] .[Aa]2 .[Aa]2 |: %25
[I:staff +1] G[I:staff -1].G .[Acg][I:staff +1]F[I:staff -1] .F.[Acf][I:staff +1] E[I:staff -1].[EGAe] | %26
[I:staff +1] =D[I:staff -1].=D .[GA=d][I:staff +1]E[I:staff -1] .E.[GAe][I:staff +1] =E[I:staff -1].[=EAc=e] | %27
[I:staff +1] F[I:staff -1].F .[Adf][I:staff +1]_E[I:staff -1] .E.[FA_e][I:staff +1] D[I:staff -1].[DFAd] | %28
[I:staff +1] C[I:staff -1].C .[FAc][I:staff +1]B,[I:staff -1] .B,.[DFB] z2 | %29
 z2 .[Acea]2 .[Acea]2 .[Acea]2 | f a2 [Gce]- [Gce]4 | z2 .[Aea]2 .[Aea]2 .[Aea]2 | %32
 e a2 [Ad]- [Ad]4 | %33
[I:staff +1] G[I:staff -1].G .[B=dg][I:staff +1]F[I:staff -1] .F.[Bdf][I:staff +1] =D[I:staff -1].[DFBd] | %34
[I:staff +1] B,[I:staff -1].B, .[=DFB][I:staff +1]=A,[I:staff -1] .=A,.[DF=A][I:staff +1] _A,[I:staff -1].[_A,=E_A] | %35
[I:staff +1] =G,[I:staff -1].=G, .[_DE=G][I:staff +1]B,[I:staff -1] .B,.[EFB][I:staff +1] D[I:staff -1].[DFGd] | %36
[I:staff +1] F[I:staff -1].F .[Bdf][I:staff +1]E[I:staff -1] .E.[=Gce][I:staff +1] D[I:staff -1].[DE_G=d] | %37
[I:staff +1] A[I:staff -1].A .[da][I:staff +1]=G[I:staff -1] .G.[d=g][I:staff +1] _G[I:staff -1].[Gd_g] | %38
[I:staff +1] F[I:staff -1].F .[Adf][I:staff +1]E[I:staff -1] .E.[FAe][I:staff +1] D[I:staff -1].[DFAd] | %39
 z2 .[Gc]2 .[GB]2 .[GA]2 |1 .[Fd]2 z .[Aa] .[Aa]2 .[Aa]2 :|2 [Fd]2 z2 !>![dfd']2 z2 || %42
 (3f.d.e !>!f.d .e!>!f d.e | (3f.d.e !>!f.d .e!>!f d.e | (3f.d.e !>!f.d .e!>!f d.e | %45
 !>![Bcg]4- [Bcg]2 [Ag]2 | (3f.=d.e !>!f.d .e!>!f d.e | (3f.=d.e !>!f.d .e!>!f d.e | %48
 (3f.=d.e !>!f.d .e!>!f d.e | [Bdf]4- [Bdf]2 [Ac=e]2 | (3f.d.e !>!f.d .e!>!f d.e | %51
 (3f.d.e !>!f.d .e!>!f d.e | (3f.d.e !>!f.d .e!>!f d.e | [=Acf]4- [Acf]2 [Acf]2 | g2 f =A2 B fe | %55
 =G2 A e2 d =F_G | .[__Ed]2 !>![DGd]4 .[CGc]2 | .[DFd]2 z2 !>![dfad']2 z2 || %58
[K:Ab] (3z .B.[_fa] z .=A .[eg] z ._A.[=d^f] | (3z .=G.[_d=f] z ._G .[c=e] z .F.[_c_e] | %60
 (3z .=E.[B=d] z ._E .[=A^c] z .=D.[_A=c] | (3z _D[G=B] z .C .[_G_B] z ._C.[F=A] | %62
 (3z B,.[_FA] z .=A, .[EG] z ._A,.[=D^F] | (3z .=G,.[_D=F] z ._G, .[C=E] z .F,.[_C_E] | %64
 .[=E,B,=D]2 !>![E,B,D]2- [E,B,D]^C .[E,B,D]2 | .[_E,B,_E]2 z2 !>![_DGBe]2 z2 |: %66
 (3([Fc]^FB .[Ge]2) z2 (3([=fc']^fb | .[ge']2) z2 z4 | %68
 (3([=Bf]=de .[ca]2) z2!8va(! (3([=bf']=d'e' | .[c'a']2)!8va)! z2 z4 | %70
 (3([Fc]^FB .[Ge]2) z2 (3([=fc']^fb | .[ge']2) z2 z4 | %72
"_L.H." [=Bf].[ce] .E.[Bf] .[ce] z .[Bf].[ce] | .E.[=Bf] .[ce] z .[Bf].[ce] z2 | %74
 (3([G=d]^Gc .[=Af]2) z2!8va(! (3([g=d']^gc' | .[=af']2)!8va)! z2 z4 | %76
 (3([cg]^cf [=db]2) z2!8va(! (3([c'g']^c'f' | [=d'b']2)!8va)! z2 z4 | %78
 (3([Fc]^FB .[Ge]2) z2 (3([=fc']^fb | .[gc']2) z2 !>![cegc']4 | .[ca]2 .[ea]2 .[=da]2 .[_da]2 | %81
 .[ca]2 z2!8va(! !>![ac'e'a']2 z2!8va)! |] %82
V:2
"_L.H." (3(.D, z z .!courtesy!_D,) z z .[D,=G,] z2 | (3(.[D,G,] z z .[D,=G,]) z z .[D,_G,] z2 | %2
 (3(.[D,=G,] z z .[D,G,]) z z .[D,=A,] z2 | (3(.[D,A,] z z .[D,=A,]) z z .[D,_A,] z2 | %4
 (3(.[D,=A,] z z .[D,B,]) z z .[!courtesy!_D,=B,] z2 | (3(.[D,C] z z .[D,=B,]) z z .[D,_B,] z2 | %6
 .A,2 [__B,,__B,]4 [B,,B,]2 | .[A,,A,]2 z2 !>![A,,,A,,]2 z2 |: %8
 [D,,D,]2 [A,DF]2 [A,,,A,,]2 [A,DF]2 | [D,,D,]2 [A,DF]2 [A,,,A,,]2 [A,DF]2 | %10
 [D,,D,]2 [A,DF]2 [A,,,A,,]2 [A,DF]2 | [E,,E,]2 [A,CG]2 [A,,A,]2 [A,CG]2 | %12
 [E,,E,]2 [A,CG]2 A,,2 [A,CG]2 | [E,,E,]2 [A,CG]2 A,,2 [A,CG]2 | [E,,E,]2 [A,CG]2 A,,2 [A,CG]2 | %15
 [D,D]2 !>![A,,A,]2 !>![B,,B,]2 !>![C,C]2 | [D,,D,]2 [A,DF]2 [A,,,A,,]2 [A,DF]2 | %17
 [D,,D,]2 [A,DF]2 [A,,,A,,]2 [A,DF]2 | [D,,D,]2 [A,DF]2 [A,,,A,,]2 [A,DF]2 | %19
 [F,,F,]2 [=A,CEF]2 =A,,2 [A,CEF]2 | [B,=D]2- [B,D][E,_D]- [E,D]2 [A,C]2 | %21
 [_D,_C]2- [D,C][_G,B,]- [G,B,]2 [_C,__B,]2 | .[_F,A,]2 !>![__B,,__B,]4 .[A,,A,]2 |1 %23
 .[D,A,]2 z2 !>![A,,A,]2 z2 :|2 .[D,A,]2 z2 z4 |: .[G,G] z z .[F,F] z2 .[E,E] z | %26
 .[=D,=D] z z .[E,E] z2 .[=E,=E] z | .[F,F] z z .[E,E] z2 .[D,D] z | %28
 .[C,C] z z .[B,,B,] z2 .[A,,A,]2 | [E,,E,]2 [A,CG]2 A,,2 [A,CG]2 | %30
 [C,C]2 [A,CG]2 [A,,A,]2 [G,A,C]2 | [D,,D,]2 [A,DF]2 A,,2 [A,DF]2 | %32
 [D,,D,]2 [A,DF]2 [A,,A,]2 [A,DF]2 | .[G,G] z z .[F,F] z2 .[=D,=D] z | %34
 .[B,,B,] z z .[=A,,=A,] z2 .[_A,,_A,] z | .[=A,,=G,] z z .[B,,B,] z2 .[D,D] z | %36
 .[F,F] z z .[E,E] z2 .[D,D] z | .[A,A] z z .[=G,=G] z2 .[_G,_G] z | %38
 .[F,F] z z .[E,E] z2 .[D,D] z | .[C,C]2 .[A,,A,]2 .[B,,B,]2 .[C,C]2 |1 .[D,D]2 z2 z4 :|2 %41
 .[D,D]2 z2 !>![D,,D,]2 z2 || [D,,D,]2 [A,DF]2 [A,,,A,,]2 [A,DF]2 | %43
 [D,,D,]2 [A,DF]2 [A,,,A,,]2 [A,DF]2 | [D,,D,]2 [A,DF]2 [A,,,A,,]2 [A,DF]2 | %45
 [E,,E,]2 [A,CG]2 [A,,A,]2 [A,CG]2 | [E,,E,]2 [A,CG]2 A,,2 [A,CG]2 | %47
 [E,,E,]2 [A,CG]2 A,,2 [A,CG]2 | [E,,E,]2 [A,CG]2 A,,2 [A,CG]2 | %49
 [D,D]2 !>![A,,A,]2 !>![B,,B,]2 !>![C,C]2 | [D,,D,]2 [A,DF]2 [A,,,A,,]2 [A,DF]2 | %51
 [D,,D,]2 [A,DF]2 [A,,,A,,]2 [A,DF]2 | [D,,D,]2 [A,DF]2 [A,,,A,,]2 [A,DF]2 | %53
 [F,,F,]2 [=A,CEF]2 =A,,2 [A,CEF]2 | [B,=D]2- [B,D][E,_D]- [E,D]2 [A,C]2 | %55
 [_D,_C]2- [D,C][_G,B,]- [G,B,]2 [_C,__B,]2 | .[_F,A,]2 !>![__B,,__B,]4 .[A,,A,]2 | %57
 .[D,A,]2 z2 !>![D,,D,]2 z2 ||[K:Ab][K:treble] !>!=d2 !>!_d2- d!>!c- c2 | %59
 !>!_c2 !>!B2- B!>!=A- A2 | !>!_A2 !>!G2- G!>!_G- G2 | !>!F2 !>!=E2- E!>!_E- E2 | %62
 !>!=D2 !>!_D2- DC C2 |[K:bass] !>!_C2 !>!B,2- B,!>!=A,- A,2 | ._A,2 !>!A,2- A, z .A,2 | %65
 G,2 z2 !>![E,,E,]2 z2 |: [B,,G,]2 [B,DE]2 [E,,E,]2 [B,DEG]2 | %67
 [B,,G,]2 [B,DEG]2 [E,,E,]2 [B,DEG]2 | A,,2 [CEA]2 E,,2 [CEA]2 | A,,2 [CEA]2 E,,2 [CEA]2 | %70
 [B,,G,]2 [B,DE]2 [E,,E,]2 [B,DEG]2 | [B,,G,]2 [B,DEG]2 [E,,E,]2 [B,DEG]2 | x8 | x8 | %74
 [C,C]2 [=A,CEF]2 F,,2 [A,CEF]2 | [=A,,=A,]2 .[F,,F,]2 .[=E,,=E,]2 .[_E,,_E,]2 | %76
 [=D,,=D,]2 [A,B,=D]2 [B,,,B,,]2 [A,B,D]2 | [F,,F,]2 .[B,,B,]2 .[=A,,=A,]2 .[_A,,_A,]2 | %78
 [G,,G,]2 [B,_DE]2 [E,,E,]2 [B,DEG]2 | [G,,G,]2 [E,,E,]2 [F,,F,]2 [G,,G,]2 | A,2 ._G2 .F2 ._F2 | %81
 .E2 z2 !>![A,,A,]2 z2 |] %82
V:3
 x8 | x8 | x8 | x8 | x8 | x8 | x8 | x8 |: B2 c3 _c- c2 | B2 c3 _c- c2 | B2 c3 _c- c2 | x8 | %12
 B2 c3 _c- c2 | B2 c3 _c- c2 | B2 c3 _c- c2 | x8 | B2 c3 _c- c2 | B2 c3 _c- c2 | B2 c3 _c- c2 | %19
 x8 | A2- A=G- G2 _G2 | F2- F_F- F2 E2 | x8 |1 x8 :|2 x8 |: x8 | x8 | x8 | x8 | x8 | [Ac]3 x5 | %31
 x8 | A3 x5 | x8 | x8 | x8 | x8 | x8 | x8 | x8 |1 x8 :|2 x8 || B2 c3 _c- c2 | B2 c3 _c- c2 | %44
 B2 c3 _c- c2 | x8 | B2 c3 _c- c2 | B2 c3 _c- c2 | B2 c3 _c- c2 | x8 | B2 c3 _c- c2 | %51
 B2 c3 _c- c2 | B2 c3 _c- c2 | x8 | A2- A=G- G2 _G2 | F2- F_F- F2 E2 | x8 | x8 ||[K:Ab] x8 | x8 | %60
 x8 | x8 | x8 | x8 | x8 | x8 |: x8 | x8 | x6!8va(! x2 | x2!8va)! x6 | x8 | x8 | x2 !>!E x5 | %73
 !>!E x5 !>!E2 | x6!8va(! x2 | x2!8va)! x6 | x6!8va(! x2 | x2!8va)! x6 | x8 | x8 | A8- | %81
 A2 x2!8va(! x4!8va)! |] %82
V:4
 x8 | x8 | x8 | x8 | x8 | x8 | x8 | x8 |: x8 | x8 | x8 | x8 | x8 | x8 | x8 | x8 | x8 | x8 | x8 | %19
 x8 | x8 | x8 | x8 |1 x8 :|2 x8 |: x8 | x8 | x8 | x8 | x8 | x8 | x8 | x8 | x8 | x8 | x8 | x8 | x8 | %38
 x8 | x8 |1 x8 :|2 x8 || x8 | x8 | x8 | x8 | x8 | x8 | x8 | x8 | x8 | x8 | x8 | x8 | x8 | x8 | x8 | %57
 x8 ||[K:Ab][K:treble] x8 | x8 | x8 | x8 | x8 |[K:bass] x8 | x8 | x8 |: x8 | x8 | x8 | x8 | x8 | %71
 x8 | x8 | x8 | x8 | x8 | x8 | x8 | x8 | x8 | A,,8- | A,,2 x6 |] %82

